X:1
T:Voice Piano template
T:Nr 1 D-minor Nr 4 
T:Französische Suite
T:Bach, Johann Sebastian
T:Menuet 
%%score { ( 1 4 ) | ( 2 3 ) }
L:1/8
Q:1/4=90
M:3/4
K:F
V:1 treble nm="Piano"
V:4 treble 
V:2 bass 
V:3 bass 
V:1
"^Moderato"!mp! !1!dfbefa | Bdg^cdf | G2 P!2!G3 F/G/ | A6- | Afedea | da^g^fg!5!=b | %6
 a!1!e!3!dc=Bc |1 A4 z2 :|2 A6 |: A2 TB2{AB} !5!c2 | B2 AG !35!A2- | AGFEF!5!G | FEDE C2 | F6- | %14
 F6- |!>(! F2 !5!G2 !4!E2!>)! |!p! !5!FE!1!FG!1!AB | c_edcdB | Gf=edec | Agfefd | !4!ed^c=BcA | %21
 !5
1
!d6- | d6- |!>(! d2 !5!f!4!e!5!d^c!>)! | d6 :| %25
V:2
 F2 G2 G2 | G2 FE !1!F2- | FED^CD!1!E | D^C=B,!2!C !3!A,2 | D2 =C=B,!1!C!2!A, | %5
 ^G,2 TA,2{G,A,} =B,2 | E,2 A,2 ^G,2 |1 A,2 A,=B,^CA, :|2 A,6 |: F,A,DG,A,C | D,F,B,E,F,A, | %11
 B,,2 P!2!=B,,3 A,,/B,,/ | !1!C,2 !2!D,2 !1!E,2 | !2!_E,2 F,E,D,C, | %14
 !1!D,2 !2!C,!1
3
!B,,!4!A,,G,, | A,,2 B,,2 C,2 | F,4 z2 | z2 F,E, F,2 | z2 G,F, G,2 | z2 A,2 D2 | %20
 !2!^C!2!D!>(! E2!>)! A,2 | ^F,A,TDG,A,C | D,G,B,E,=F,A, | B,,2 G,,2 A,,2 | D,6 :| %25
V:3
 D6- | D6 | !5!B,6 | A,4- A,G, | F,6- | F,2 E,2 D,2 | C,2 D,2 E,2 |1 A,,2 z2 z2 :|2 A,,6 |: x6 | %10
 x6 | x6 | x6 | x6 | x6 | x6 | F,2 !5!F,,2 !4!G,,2 | !5!A,,2 B,,3 G,, | !4!C,=B,, C,3 A,, | %19
 !3!D,^C, D,2 !1
3
!B,2- | B,2 !4!A,!5!G,!2
4
!F,E, | x6 | x6 | x6 | D,,6 :| %25
V:4
 x6 | x6 | x6 | x6 | x6 | x6 | x6 |1 x6 :|2 x6 |: F6- | F6 | D6 | C4- CB, | A,CDG,A,C | %14
 F,A,B,[I:staff +1]=E,[I:staff -1]F,A, | C2 B,A,[I:staff +1]G,[I:staff -1]A, | x6 | x6 | x6 | x6 | %20
 x6 | A2 _B2{AB} =c2 | !4!cBAG A2 | F2 !4!G2 E2 | D6 :| %25

